X:1
T:All Hail the Power (Elevation)
T:All Hail the Power (Elevation)
T:Scott Werdebaugh, 1990
T:Edward Perronet, 1779, & John Rippon, 1787
T:© 1990 Scott Werdebaugh &amp; New Heart Music - May be freely copied or used for Christian worship or devotions, without alterations. All other rights reserved.
T:© 1990 Scott Werdebaugh &amp; New Heart Music - May be freely copied or used for Christian worship or devotions, without alterations. All other rights reserved.
C:Scott Werdebaugh, 1990
Z:© 1990 Scott Werdebaugh & New Heart Music - May be freely copied or used for
Z:Christian worship or devotions, without alterations. All other rights reserved.
%%score ( 1 2 ) ( 3 4 )
L:1/8
Q:1/4=110
M:4/4
K:C
V:1 treble 
V:2 treble 
V:3 bass 
V:4 bass 
V:1
 [CE]2 [CE][CF] [CG]2 [EG]2 | [FA]3 [DG] [EG]3 [EG] | [FA]2 [EG]2 [CF]2 [CE]2 | D8 | %4
w: All hail the pow’r of|Je- sus’ name! Let|an- gels pros- trate|fall;|
 [CE]2 [CE][CF] [CG]2 [EG]2 | [FA]3 [FB] [Gc]2 [EG]2 | [Ge]2 [Dd]2 [Ec]2 B2 | c8 | %8
w: Bring forth the roy- al|di- a- dem, And|crown Him Lord of|all!|
 [Ec]2 [Ec][Ec] [EB]2 [EB]2 | [CA]2 [DA]2 [E^G]4 | [EA]2 [EA][EA] [^GB]2 [EG]2 | [^C^F]8 | %12
w: You chos- en seed of|Is- rael’s race,|You ran- somed from the|fall;|
 [=CE]2 [CE][C=F] [C=G]2 [EG]2 | [FA]3 [FB] [Gc]2 [EG]2 | [Ge]2 [Dd]2 [Ec]2 B2 | [Ec]8 | %16
w: Hail Him who saves you|by His grace, And|crown Him Lord of|all!|
 [CE]2 [CE][CF] [CG]2 C2 | [FA]2 ([EG][DF]) [EG]2 [EG]2 | [FA]2 [EG]2 [DF]3 [CE] | [B,D]8 | %20
w: Let ev- ’ry kin- dred,|ev- ’ry * tribe On|this ter- res- trial|ball,|
 [CE]2 [CE][CF] [CG]2 [EG]2 | [FA]3 [FB] [Ec]2 [EG]2 | [Ge]2 [Fd]2 [Ec]2 B2 | [Ec]8 | %24
w: To Him all ma- jes-|ty a- scribe, And|crown Him Lord of|all!|
 [Ec]2 [ce][Gd] [Ec]2 [Gc]2 | [GB]2 [GB]2 [FA]3 [FA] | [EG]2 ([FA][EG]) [A,F]2 [CE]2 | [B,D]8 | %28
w: O that with yon- der|sa- cred throng We|at His * feet may|fall!|
 [CE]2 [CE][CF] [CG]2 [EG]2 | [FA]3 [FB] [Gc]2 [EG]2 | [Ge]2 [Dd]2 [Ec]2 B2 | c8 |] %32
w: We’ll join the ev- er-|last- ing song, And|crown Him Lord of|all!|
V:2
 x8 | x8 | x8 | B,8 | x8 | x8 | x6 (DF) | E8 | x8 | x8 | x8 | x8 | x8 | x8 | x6 (DF) | x8 | x6 C2 | %17
 x8 | x8 | x8 | x8 | x8 | x6 (GF) | x8 | x8 | x8 | x8 | x8 | x8 | x8 | x6 (DF) | E8 |] %32
V:3
 [C,G,]2 G,2 [E,G,]2 [C,C]2 | [F,C]3 [G,B,] [C,C]3 [C,C] | [F,C]2 [C,C]2 [F,A,]2 [C,G,]2 | %3
 (G,4 F,4) | [C,G,]2 G,2 [E,G,]2 [C,C]2 | [F,C]3 [F,D] [E,C]2 [C,C]2 | %6
 [C,C]2 [F,A,]2 [E,G,]2 [G,,G,]2 | G,8 | [A,,A,]2 [A,,A,][A,,A,] [E,G,]2 [E,G,]2 | %9
 [F,A,]2 [F,A,]2 [E,B,]4 | [A,C]2 [A,C]2 [E,^G,]2 [E,B,]2 | [^F,A,]8 | %12
 [=C,=G,]2 G,2 [E,G,]2 [C,C]2 | [F,C]3 [F,D] [E,C]2 [C,C]2 | [C,C]2 [F,A,]2 [G,,G,]2 [G,,G,]2 | %15
 [C,G,]8 | [C,G,]2 G,2 [E,G,]2 [C,E,]2 | [F,C]2 C2 [C,C]2 [E,C]2 | [F,C]2 [C,C]2 [G,B,]3 [C,G,] | %19
 (G,4 F,4) | [C,G,]2 [C,G,][D,G,] [E,G,]2 [C,C]2 | [F,C]3 [D,G,] [C,G,]2 [C,C]2 | %22
 [C,C]2 [G,B,]2 [A,C]2 [G,D]2 | [C,C]8 | [C,G,]2 [C,G,]2 [C,G,]2 [E,C]2 | %25
 [G,D]2 [G,D]2 [A,C]3 [A,C] | [C,C]2 C2 [D,F,]2 [C,G,]2 | (G,4 F,4) | [C,G,]2 G,2 [E,G,]2 [C,C]2 | %29
 [F,C]3 [F,D] [E,C]2 [C,C]2 | [C,C]2 [F,A,]2 [G,,G,]2 [G,,G,]2 | [C,G,]8 |] %32
V:4
 x2 C,D, x4 | x8 | x8 | G,,8 | x2 C,D, x4 | x8 | x8 | (C,4 B,,4) | x8 | x8 | x8 | x8 | x2 C,D, x4 | %13
 x8 | x8 | x8 | x2 C,D, x4 | x2 (C,G,) x4 | x8 | G,,8 | x8 | x8 | x8 | x8 | x8 | x8 | %26
 x2 (F,C,) x4 | G,,8 | x2 C,D, x4 | x8 | x8 | x8 |] %32

